X:201
T: WARUM BIST DU DENN SO TRAURIG
N: E0782A
O: Europa, Mitteleuropa, Deutschland, Sueddeutschland
R: Abschieds - Lied, Liebe
M: 3/4
L: 1/16
K: F
F3G | A4A4cBAB | c4f4
A2c2 | d2c2B2A2G2B2 | A4z4
A2c2 | B2A2G4B2d2 | c2B2A4
A2c2 | B2A2G4B2d2 | c2B2A4
F3G | A4A4cBAB | c4f4
A2c2 | d2c2B2A2G2B2 | A4z4

@@@ Tune index: 4514
